svg/u2626.svg

<svg viewBox="0 0 128 128" xmlns="http://www.w3.org/2000/svg">
  <g>
    <path d="M116.46,3.96h-104c-4.42,0-8,3.58-8,8v104c0,4.42,3.58,8,8,8h104c4.42,0,8-3.58,8-8v-104 C124.46,7.54,120.88,3.96,116.46,3.96z" fill="#8E24AA"/>
    <path d="M110.16,3.96h-98.2c-4.13,0.03-7.47,3.37-7.5,7.5v97.9c-0.01,4.14,3.34,7.49,7.48,7.5 c0.01,0,0.01,0,0.02,0h98.1c4.14,0.01,7.49-3.34,7.5-7.48c0-0.01,0-0.01,0-0.02v-97.9c0.09-4.05-3.13-7.41-7.18-7.5 C110.31,3.96,110.23,3.96,110.16,3.96z" fill="#AB47BC"/>
    <path d="M40.16,12.86c0-2.3-1.6-3-10.8-2.7c-7.7,0.3-11.5,1.2-13.8,4 s-2.9,8.5-3,15.3c0,4.8,0,9.3,2.5,9.3c3.4,0,3.4-7.9,6.2-12.3C26.66,17.76,40.16,15.86,40.16,12.86z" opacity="0.3" fill="#FAFAFA" enable-background="new "/>
    <g opacity="0.2">
      <path d="M64.46,15.96c2.76,0,5,2.24,5,5v6h14c2.76,0,5,2.24,5,5c0,2.76-2.24,5-5,5h-14v9h30 c2.76,0,5,2.24,5,5s-2.24,5-5,5h-30v25.1l12.5,6.9c2.37,1.41,3.16,4.48,1.75,6.85c-0.89,1.5-2.5,2.43-4.25,2.45 c-0.88,0-1.75-0.24-2.5-0.7l-7.5-4v14.4c0,2.76-2.24,5-5,5c-2.76,0-5-2.24-5-5v-20.1l-12.5-6.9c-2.37-1.41-3.16-4.48-1.75-6.85 c0.89-1.5,2.5-2.43,4.25-2.45c0.88,0,1.75,0.24,2.5,0.7l7.5,4v-19.4h-30c-2.76,0-5-2.24-5-5s2.24-5,5-5h30v-9h-14 c-2.76,0-5-2.24-5-5c0-2.76,2.24-5,5-5h14v-6C59.46,18.2,61.7,15.96,64.46,15.96" fill="#424242"/>
    </g>
    <path d="M99.46,55.96c2.76,0,5-2.24,5-5s-2.24-5-5-5h-30v-9h14c2.76,0,5-2.24,5-5c0-2.76-2.24-5-5-5h-14v-6 c0-2.76-2.24-5-5-5c-2.76,0-5,2.24-5,5v6h-14c-2.76,0-5,2.24-5,5c0,2.76,2.24,5,5,5h14v9h-30c-2.76,0-5,2.24-5,5s2.24,5,5,5h30 v19.3l-7.5-4c-2.33-1.39-5.34-0.64-6.74,1.69c-0.02,0.04-0.04,0.07-0.06,0.11c-1.37,2.38-0.56,5.41,1.8,6.8l12.5,7v20.1 c0,2.76,2.24,5,5,5c2.76,0,5-2.24,5-5v-14.3l7.5,4c0.75,0.46,1.62,0.7,2.5,0.7c2.76-0.03,4.98-2.29,4.95-5.05 c-0.02-1.75-0.95-3.36-2.45-4.25l-12.5-7v-25.1H99.46z" fill="#FAFAFA"/>
  </g>
</svg>

<svg viewBox="0 0 128 128" xmlns="http://www.w3.org/2000/svg">
  <defs/>
  <path d="M116.46,3.96 L12.46,3.96 C8.04,3.96 4.46,7.54 4.46,11.96 L4.46,115.96 C4.46,120.38 8.04,123.96 12.46,123.96 L116.46,123.96 C120.88,123.96 124.46,120.38 124.46,115.96 L124.46,11.96 C124.46,7.54 120.88,3.96 116.46,3.96 Z" fill="#8E24AA"/>
  <path d="M110.16,3.96 L11.96,3.96 C7.83,3.99 4.49,7.33 4.46,11.46 L4.46,109.36 C4.45,113.5 7.8,116.85 11.94,116.86 C11.95,116.86 11.95,116.86 11.96,116.86 L110.06,116.86 C114.2,116.87 117.55,113.52 117.56,109.38 C117.56,109.37 117.56,109.37 117.56,109.36 L117.56,11.46 C117.65,7.41 114.43,4.05 110.38,3.96 C110.31,3.96 110.23,3.96 110.16,3.96 Z" fill="#AB47BC"/>
  <path d="M40.16,12.86 C40.16,10.56 38.56,9.86 29.36,10.16 C21.66,10.46 17.86,11.36 15.56,14.16 C13.26,16.96 12.66,22.66 12.56,29.46 C12.56,34.26 12.56,38.76 15.06,38.76 C18.46,38.76 18.46,30.86 21.26,26.46 C26.66,17.76 40.16,15.86 40.16,12.86 Z" fill="#FAFAFA" opacity="0.3"/>
  <path d="M64.46,15.96 C67.22,15.96 69.46,18.2 69.46,20.96 L69.46,26.96 L83.46,26.96 C86.22,26.96 88.46,29.2 88.46,31.96 C88.46,34.72 86.22,36.96 83.46,36.96 L69.46,36.96 L69.46,45.96 L99.46,45.96 C102.22,45.96 104.46,48.2 104.46,50.96 C104.46,53.72 102.22,55.96 99.46,55.96 L69.46,55.96 L69.46,81.06 L81.96,87.96 C84.33,89.37 85.12,92.44 83.71,94.81 C82.82,96.31 81.21,97.24 79.46,97.26 C78.58,97.26 77.71,97.02 76.96,96.56 L69.46,92.56 L69.46,106.96 C69.46,109.72 67.22,111.96 64.46,111.96 C61.7,111.96 59.46,109.72 59.46,106.96 L59.46,86.86 L46.96,79.96 C44.59,78.55 43.8,75.48 45.21,73.11 C46.1,71.61 47.71,70.68 49.46,70.66 C50.34,70.66 51.21,70.9 51.96,71.36 L59.46,75.36 L59.46,55.96 L29.46,55.96 C26.7,55.96 24.46,53.72 24.46,50.96 C24.46,48.2 26.7,45.96 29.46,45.96 L59.46,45.96 L59.46,36.96 L45.46,36.96 C42.7,36.96 40.46,34.72 40.46,31.96 C40.46,29.2 42.7,26.96 45.46,26.96 L59.46,26.96 L59.46,20.96 C59.46,18.2 61.7,15.96 64.46,15.96" fill="#424242" opacity="0.2"/>
  <path d="M99.46,55.96 C102.22,55.96 104.46,53.72 104.46,50.96 C104.46,48.2 102.22,45.96 99.46,45.96 L69.46,45.96 L69.46,36.96 L83.46,36.96 C86.22,36.96 88.46,34.72 88.46,31.96 C88.46,29.2 86.22,26.96 83.46,26.96 L69.46,26.96 L69.46,20.96 C69.46,18.2 67.22,15.96 64.46,15.96 C61.7,15.96 59.46,18.2 59.46,20.96 L59.46,26.96 L45.46,26.96 C42.7,26.96 40.46,29.2 40.46,31.96 C40.46,34.72 42.7,36.96 45.46,36.96 L59.46,36.96 L59.46,45.96 L29.46,45.96 C26.7,45.96 24.46,48.2 24.46,50.96 C24.46,53.72 26.7,55.96 29.46,55.96 L59.46,55.96 L59.46,75.26 L51.96,71.26 C49.63,69.87 46.62,70.62 45.22,72.95 C45.2,72.99 45.18,73.02 45.16,73.06 C43.79,75.44 44.6,78.47 46.96,79.86 L59.46,86.86 L59.46,106.96 C59.46,109.72 61.7,111.96 64.46,111.96 C67.22,111.96 69.46,109.72 69.46,106.96 L69.46,92.66 L76.96,96.66 C77.71,97.12 78.58,97.36 79.46,97.36 C82.22,97.33 84.44,95.07 84.41,92.31 C84.39,90.56 83.46,88.95 81.96,88.06 L69.46,81.06 L69.46,55.96 L99.46,55.96 Z" fill="#FAFAFA"/>
</svg>
